src/icons/remove-tag.svg

<?xml version="1.0" encoding="UTF-8"?>
<svg xmlns="http://www.w3.org/2000/svg" xmlns:xlink="http://www.w3.org/1999/xlink" width="32" height="32" viewBox="0 0 32 32" version="1.1">
<g id="surface1">
<path style=" stroke:none;fill-rule:nonzero;fill:rgb(0%,0%,0%);fill-opacity:1;" d="M 18.078125 1.28125 C 17.445312 1.304688 16.804688 1.433594 16.378906 1.921875 L 1.859375 16.441406 C 1.171875 17.128906 1.15625 18.28125 1.859375 19.078125 L 12.980469 30.21875 C 13.324219 30.566406 13.785156 30.738281 14.261719 30.738281 C 14.730469 30.738281 15.222656 30.570312 15.621094 30.21875 L 18.378906 27.460938 C 19.417969 30.195312 22.039062 32 24.960938 32 C 28.847656 31.996094 31.996094 28.847656 32 24.960938 C 31.996094 21.996094 30.144531 19.351562 27.359375 18.339844 L 30.078125 15.621094 C 30.714844 14.984375 30.71875 14.007812 30.71875 13.058594 L 30.71875 3.519531 C 30.71875 2.265625 29.738281 1.28125 28.480469 1.28125 L 18.699219 1.28125 C 18.496094 1.277344 18.292969 1.273438 18.078125 1.28125 M 24.960938 5.121094 C 26.019531 5.121094 26.878906 5.980469 26.878906 7.042969 C 26.878906 8.101562 26.019531 8.960938 24.957031 8.960938 C 23.898438 8.960938 23.039062 8.101562 23.039062 7.039062 C 23.039062 5.980469 23.902344 5.121094 24.960938 5.121094 M 24.960938 19.199219 C 28.140625 19.203125 30.71875 21.78125 30.71875 24.960938 C 30.714844 28.140625 28.140625 30.714844 24.960938 30.71875 C 21.78125 30.71875 19.203125 28.140625 19.199219 24.960938 C 19.199219 21.78125 21.78125 19.199219 24.960938 19.199219 M 22.859375 21.941406 L 21.941406 22.859375 L 24.039062 24.960938 L 21.941406 27.058594 L 22.859375 27.980469 L 24.960938 25.878906 L 27.058594 27.980469 L 27.980469 27.058594 L 25.878906 24.960938 L 27.980469 22.859375 L 27.058594 21.941406 L 24.960938 24.039062 Z M 22.859375 21.941406 "/>
</g>
</svg>

<svg role="img" viewBox="0 0 32 32" xmlns="http://www.w3.org/2000/svg"><path d="M18.078 1.281c-.633.024-1.273.153-1.7.64L1.86 16.442c-.687.688-.703 1.84 0 2.637l11.121 11.14c.344.348.805.52 1.282.52.468 0 .96-.168 1.36-.52l2.757-2.757A7.042 7.042 0 0 0 24.96 32 7.045 7.045 0 0 0 32 24.96a7.053 7.053 0 0 0-4.64-6.62l2.718-2.719c.637-.637.64-1.613.64-2.562v-9.54c0-1.253-.98-2.238-2.238-2.238H18.7c-.204-.004-.407-.008-.622 0m6.883 3.84a1.92 1.92 0 1 1-.003 3.84 1.92 1.92 0 0 1 .003-3.84m0 14.078a5.764 5.764 0 0 1 5.758 5.762 5.763 5.763 0 0 1-5.758 5.758 5.764 5.764 0 0 1-5.762-5.758 5.765 5.765 0 0 1 5.762-5.762m-2.102 2.742-.918.918 2.098 2.102-2.098 2.098.918.921 2.102-2.101 2.098 2.101.921-.921-2.101-2.098 2.101-2.102-.921-.918-2.098 2.098Zm0 0" style="stroke:none;fill-rule:nonzero;fill:rgb(0%,0%,0%);fill-opacity:1"/></svg>
